X: 42044
T: Waltz For Tich
R: waltz
M: 3/4
K: Dmajor
Ade|:f3a (3gfe|d3 Adc|B3 A (3GAB|
A3 BAG|F2 A2 d2|F2 A2 d2|F3 E D2|
E3 Ade|f3 a (3gfe|d3 Adc|B3 A (3GAB|
A3 BAG|F2 A2 d2|1 e3 f e2|d4 d2|
d3 Ade:|2 E3 D C2|D4 D2|D4 AG||
|:F3 A (3GFE|D2 FA dc|B3A (3GAB|
A3 BAG|F2 A2 d2|F3 E D2|E4 _E2|
E4 AG|F3 A (3GFE|D2 FA dc|B3 A (3GAB|
A3 BAG|F2 A2 d2|e3 fe2|d6|1 d4 AG:|2 d6||

